!!!OTL: Qichelu yaoxiushang yuntian
!!!ARE: Asia, China,ÿQinghai Tongren
!! I, 229, 2)
!!!SCT: C1861
!!!YEM: Copyright 1995, estate of Helmut Schaffrath.
**kern
*ICvox
*Ivox
*M2/4
*k[f#]
*G:
{8ee
8ee
8ee
16dd
16b
=1
8dd
8ee
8ee
16dd
16b
=2
8dd
16dd
16ee
16b
16a
16g
16e
=3
[2e
=4
4.e]
8e
=5
8.dd
16ee
16b
16a
8g
=6
4e
8a
8b}
=7
{8dd
8dd
8ee
8ee
=8
4e
8a
16g
16a
=9
8b
8dd
8dd
16b
16a
=10
4a
[4a
=11
2a]
=12
4a
4r}
==
!!!AGN: Shange, Huar, Baoanling
!! Hui Han
!!!ONB: ESAC (Essen Associative Code) Database: SENGANSU
!!!AMT: simple duple
!!!AIN: vox
!!!EED: Helmut Schaffrath
!!!EEV: 1.0
*-
!!!ONB: Tied note syntax fixed by Craig Sapp, 2004/05/03/
